flaticon/music/cymbals.svg

<svg xmlns="http://www.w3.org/2000/svg" width="32" height="32" viewBox="0 0 24 24">
    <path d="M 22.398438 7.199219 L 12.398438 7.199219 L 12.398438 6.398438 L 22.398438 6.398438 C 22.621094 6.398438 22.800781 6.222656 22.800781 6 C 22.800781 5.777344 22.621094 5.601562 22.398438 5.601562 L 20.398438 5.601562 C 19.0625 5.601562 18.226562 5.144531 17.253906 4.617188 C 16.09375 3.988281 14.78125 3.277344 12.398438 3.207031 L 12.398438 2.398438 C 12.507812 2.398438 12.609375 2.359375 12.683594 2.28125 L 13.082031 1.882812 C 13.15625 1.808594 13.199219 1.707031 13.199219 1.601562 L 13.199219 0.800781 C 13.199219 0.695312 13.15625 0.59375 13.082031 0.515625 L 12.683594 0.117188 C 12.609375 0.0429688 12.507812 0 12.398438 0 L 11.601562 0 C 11.492188 0 11.390625 0.0429688 11.316406 0.117188 L 10.917969 0.515625 C 10.84375 0.59375 10.800781 0.695312 10.800781 0.800781 L 10.800781 1.601562 C 10.800781 1.707031 10.84375 1.808594 10.917969 1.882812 L 11.316406 2.28125 C 11.390625 2.359375 11.492188 2.398438 11.601562 2.398438 L 11.601562 3.207031 C 9.222656 3.277344 7.917969 3.984375 6.761719 4.613281 C 5.789062 5.144531 4.949219 5.601562 3.601562 5.601562 L 1.601562 5.601562 C 1.378906 5.601562 1.199219 5.777344 1.199219 6 C 1.199219 6.222656 1.378906 6.398438 1.601562 6.398438 L 11.601562 6.398438 L 11.601562 7.199219 L 1.601562 7.199219 C 1.378906 7.199219 1.199219 7.378906 1.199219 7.601562 C 1.199219 7.820312 1.378906 8 1.601562 8 L 3.601562 8 C 4.9375 8 5.773438 8.457031 6.746094 8.980469 C 7.90625 9.613281 9.21875 10.320312 11.601562 10.394531 L 11.601562 18.632812 L 6.917969 23.316406 C 6.761719 23.472656 6.761719 23.726562 6.917969 23.882812 C 6.996094 23.960938 7.097656 24 7.199219 24 C 7.300781 24 7.40625 23.960938 7.484375 23.882812 L 11.601562 19.765625 L 11.601562 23.601562 C 11.601562 23.820312 11.777344 24 12 24 C 12.222656 24 12.398438 23.820312 12.398438 23.601562 L 12.398438 19.765625 L 16.515625 23.882812 C 16.59375 23.960938 16.699219 24 16.800781 24 C 16.902344 24 17.003906 23.960938 17.082031 23.882812 C 17.238281 23.726562 17.238281 23.472656 17.082031 23.316406 L 12.398438 18.632812 L 12.398438 10.394531 C 14.777344 10.320312 16.082031 9.613281 17.238281 8.984375 C 18.210938 8.457031 19.050781 8 20.398438 8 L 22.398438 8 C 22.621094 8 22.800781 7.820312 22.800781 7.601562 C 22.800781 7.378906 22.621094 7.199219 22.398438 7.199219 Z M 11.601562 0.964844 L 11.765625 0.800781 L 12.234375 0.800781 L 12.398438 0.964844 L 12.398438 1.433594 L 12.234375 1.601562 L 11.765625 1.601562 L 11.601562 1.433594 Z M 7.144531 5.316406 C 8.335938 4.671875 9.566406 4 12 4 C 14.4375 4 15.675781 4.671875 16.871094 5.320312 C 17.046875 5.417969 17.222656 5.507812 17.398438 5.601562 L 6.613281 5.601562 C 6.789062 5.507812 6.96875 5.414062 7.144531 5.316406 Z M 16.855469 8.28125 C 15.664062 8.929688 14.433594 9.601562 12 9.601562 C 9.5625 9.601562 8.324219 8.929688 7.128906 8.277344 C 6.953125 8.183594 6.777344 8.089844 6.601562 8 L 17.386719 8 C 17.210938 8.09375 17.03125 8.1875 16.855469 8.28125 Z M 16.855469 8.28125"/>
</svg>

<svg xmlns="http://www.w3.org/2000/svg" width="32" height="32" viewBox="0 0 24 24">
    <path d="M22.398 7.2h-10v-.802h10a.398.398 0 1 0 0-.796h-2c-1.335 0-2.171-.457-3.144-.985-1.16-.629-2.473-1.34-4.856-1.41v-.809c.11 0 .211-.039.286-.117l.398-.398a.4.4 0 0 0 .117-.281V.8a.416.416 0 0 0-.117-.285l-.398-.399A.402.402 0 0 0 12.398 0h-.796c-.11 0-.211.043-.286.117l-.398.399a.416.416 0 0 0-.117.285v.8a.4.4 0 0 0 .117.282l.398.398a.386.386 0 0 0 .286.117v.809c-2.38.07-3.684.777-4.84 1.406-.973.532-1.813.989-3.16.989h-2a.398.398 0 1 0 0 .796h10V7.2h-10a.401.401 0 0 0 0 .8l2 .001c1.336 0 2.171.457 3.144.98 1.16.633 2.473 1.34 4.856 1.415v8.238l-4.684 4.683a.4.4 0 0 0 .566.567l4.118-4.117v3.836a.398.398 0 1 0 .796 0v-3.836l4.118 4.117A.405.405 0 0 0 16.8 24a.4.4 0 0 0 .281-.684l-4.684-4.683v-8.238c2.38-.075 3.684-.782 4.84-1.41.973-.528 1.813-.985 3.16-.985h2a.401.401 0 1 0 0-.8zM11.602.964L11.766.8h.468l.164.164v.469l-.164.168h-.468l-.164-.168zM7.145 5.316C8.335 4.672 9.566 4 12 4c2.438 0 3.676.672 4.871 1.32.176.098.352.188.527.282H6.613c.176-.094.356-.188.532-.286zm9.71 2.965c-1.19.649-2.421 1.32-4.855 1.32-2.438 0-3.676-.671-4.871-1.324-.176-.093-.352-.187-.527-.277h10.785l-.532.281zm0 0"/>
</svg>
